X: 1
T: Mrs Norman McKeagan
C: Dan R. Macdonald
R: reel
Z: 2013 John Chambers <jc:trillian.mit.edu>
S: Handwritten MS by Barbara McOwen dated 6/89
D: W.Hunter Record
M: C|
L: 1/8
K: D
F2 "A"|\
"D"D2FD F/G/A AB | "D7"defd "G"g2fe |\
"D"dcBA "Bm"BcdA | "Em"BdAF "A7"EDFE |\
"D"D2-DG F/G/A AB |
"D7"defd "G"g2fe |\
"D"dcBA "G"BcdA | "A7"BdAF "D"D2 "B":: f2 |\
"D"abaf defd | "D"fadf "A7"gfef |
"D"abaf "Bm"defd | "Em"fadf "A7"e2-ef |\
"D"abaf defd | "D7"fada "G"gfef |\
"D"dcBA BcdA | "A7"B/c/d AF D2 :|
